static/assets/img/icons/theme/code/option.svg

<svg height="24" viewBox="0 0 24 24" width="24" xmlns="http://www.w3.org/2000/svg"><g fill="none" fill-rule="evenodd"><path d="m0 0h24v24h-24z" opacity="0"/><g fill="#000"><rect height="2" opacity=".3" rx="1" width="10" x="12" y="7"/><path d="m2 9c-.55228475 0-1-.44771525-1-1s.44771525-1 1-1h5.35012691c.79037743 0 1.50662042.46546704 1.8276231 1.18772307l3.47212309 7.81227693h9.3501269c.5522847 0 1 .4477153 1 1s-.4477153 1-1 1h-9.3501269c-.7903774 0-1.5066204-.465467-1.8276231-1.1877231l-3.47212309-7.8122769z" fill-rule="nonzero"/></g></g></svg>

<svg width="24px" height="24px" viewBox="0 0 24 24" version="1.1" xmlns="http://www.w3.org/2000/svg" xmlns:xlink="http://www.w3.org/1999/xlink">
    <title>Icon For Option</title>
    <g stroke="none" stroke-width="1" fill="none" fill-rule="evenodd">
        <rect opacity="0" x="0" y="0" width="24" height="24"></rect>
        <rect fill="#000000" opacity="0.3" x="12" y="7" width="10" height="2" rx="1"></rect>
        <path d="M2,9 C1.44771525,9 1,8.55228475 1,8 C1,7.44771525 1.44771525,7 2,7 L7.35012691,7 C8.14050434,7 8.85674733,7.46546704 9.17775001,8.18772307 L12.6498731,16 L22,16 C22.5522847,16 23,16.4477153 23,17 C23,17.5522847 22.5522847,18 22,18 L12.6498731,18 C11.8594957,18 11.1432527,17.534533 10.82225,16.8122769 L7.35012691,9 L2,9 Z" fill="#000000" fill-rule="nonzero"></path>
    </g>
</svg>
